X: 220
T: Yinian mang
%%abc-version 2.0
%%abcx-abcm2ps-target-version 5.9.1 (29 Sep 2008)
%%abc-creator hum2abc beta
%%abcx-conversion-date 2013/10/02 07:52:29
%%abc-edited-by Helmut Schaffrath
%%humdrum-veritas 425346240
%%humdrum-veritas-data 1926384800
%%continueall 1
%%barnumbers 0
L: 1/16
M: 2/4
K: G
d2 e g d2 e2 [I:setbarnb 1]| 
e2 d BA4 | 
d2 e g d2 e2 | 
e d c BA4 | 
A B d2 B d B A | 
B d B AG4 | 
A G A B D E G2 | 
E D B, A,D4 | 
G G D E G E G2 | 
A G A B D E G2 | 
E D B, A,D4 |]  



